images/97587.svg

<?xml version="1.0" encoding="UTF-8"?>
<svg xmlns="http://www.w3.org/2000/svg" xmlns:xlink="http://www.w3.org/1999/xlink" width="300pt" height="300pt" viewBox="0 0 300 300" version="1.1">
<defs>
<g>
<symbol overflow="visible" id="glyph0-0">
<path style="stroke:none;" d="M 0.796875 2.828125 L 0.796875 -11.28125 L 8.796875 -11.28125 L 8.796875 2.828125 Z M 1.703125 1.9375 L 7.90625 1.9375 L 7.90625 -10.390625 L 1.703125 -10.390625 Z M 1.703125 1.9375 "/>
</symbol>
<symbol overflow="visible" id="glyph0-1">
<path style="stroke:none;" d="M 1.578125 -11.671875 L 3.703125 -11.671875 L 8.875 -1.90625 L 8.875 -11.671875 L 10.40625 -11.671875 L 10.40625 0 L 8.28125 0 L 3.109375 -9.765625 L 3.109375 0 L 1.578125 0 Z M 1.578125 -11.671875 "/>
</symbol>
<symbol overflow="visible" id="glyph0-2">
<path style="stroke:none;" d="M 1.578125 -11.671875 L 3.15625 -11.671875 L 3.15625 -6.890625 L 8.890625 -6.890625 L 8.890625 -11.671875 L 10.46875 -11.671875 L 10.46875 0 L 8.890625 0 L 8.890625 -5.5625 L 3.15625 -5.5625 L 3.15625 0 L 1.578125 0 Z M 1.578125 -11.671875 "/>
</symbol>
<symbol overflow="visible" id="glyph0-3">
<path style="stroke:none;" d="M 3.15625 -10.375 L 3.15625 -5.984375 L 5.140625 -5.984375 C 5.867188 -5.984375 6.429688 -6.171875 6.828125 -6.546875 C 7.234375 -6.929688 7.4375 -7.476562 7.4375 -8.1875 C 7.4375 -8.882812 7.234375 -9.421875 6.828125 -9.796875 C 6.429688 -10.179688 5.867188 -10.375 5.140625 -10.375 Z M 1.578125 -11.671875 L 5.140625 -11.671875 C 6.441406 -11.671875 7.425781 -11.375 8.09375 -10.78125 C 8.769531 -10.1875 9.109375 -9.320312 9.109375 -8.1875 C 9.109375 -7.03125 8.769531 -6.15625 8.09375 -5.5625 C 7.425781 -4.976562 6.441406 -4.6875 5.140625 -4.6875 L 3.15625 -4.6875 L 3.15625 0 L 1.578125 0 Z M 1.578125 -11.671875 "/>
</symbol>
<symbol overflow="visible" id="glyph0-4">
<path style="stroke:none;" d="M 6.3125 -10.59375 C 5.164062 -10.59375 4.253906 -10.164062 3.578125 -9.3125 C 2.898438 -8.457031 2.5625 -7.296875 2.5625 -5.828125 C 2.5625 -4.359375 2.898438 -3.195312 3.578125 -2.34375 C 4.253906 -1.488281 5.164062 -1.0625 6.3125 -1.0625 C 7.457031 -1.0625 8.363281 -1.488281 9.03125 -2.34375 C 9.695312 -3.195312 10.03125 -4.359375 10.03125 -5.828125 C 10.03125 -7.296875 9.695312 -8.457031 9.03125 -9.3125 C 8.363281 -10.164062 7.457031 -10.59375 6.3125 -10.59375 Z M 6.3125 -11.875 C 7.945312 -11.875 9.253906 -11.328125 10.234375 -10.234375 C 11.210938 -9.140625 11.703125 -7.671875 11.703125 -5.828125 C 11.703125 -3.984375 11.210938 -2.507812 10.234375 -1.40625 C 9.253906 -0.3125 7.945312 0.234375 6.3125 0.234375 C 4.664062 0.234375 3.351562 -0.3125 2.375 -1.40625 C 1.394531 -2.507812 0.90625 -3.984375 0.90625 -5.828125 C 0.90625 -7.671875 1.394531 -9.140625 2.375 -10.234375 C 3.351562 -11.328125 4.664062 -11.875 6.3125 -11.875 Z M 6.3125 -11.875 "/>
</symbol>
<symbol overflow="visible" id="glyph1-0">
<path style="stroke:none;" d="M 0.640625 2.296875 L 0.640625 -9.171875 L 7.140625 -9.171875 L 7.140625 2.296875 Z M 1.375 1.578125 L 6.421875 1.578125 L 6.421875 -8.4375 L 1.375 -8.4375 Z M 1.375 1.578125 "/>
</symbol>
<symbol overflow="visible" id="glyph1-1">
<path style="stroke:none;" d="M 2.5 -1.078125 L 6.96875 -1.078125 L 6.96875 0 L 0.953125 0 L 0.953125 -1.078125 C 1.441406 -1.578125 2.101562 -2.25 2.9375 -3.09375 C 3.78125 -3.945312 4.3125 -4.5 4.53125 -4.75 C 4.9375 -5.207031 5.21875 -5.597656 5.375 -5.921875 C 5.539062 -6.242188 5.625 -6.554688 5.625 -6.859375 C 5.625 -7.367188 5.445312 -7.78125 5.09375 -8.09375 C 4.75 -8.40625 4.289062 -8.5625 3.71875 -8.5625 C 3.3125 -8.5625 2.882812 -8.492188 2.4375 -8.359375 C 2 -8.222656 1.523438 -8.007812 1.015625 -7.71875 L 1.015625 -9.015625 C 1.535156 -9.222656 2.019531 -9.378906 2.46875 -9.484375 C 2.914062 -9.597656 3.320312 -9.65625 3.6875 -9.65625 C 4.675781 -9.65625 5.460938 -9.40625 6.046875 -8.90625 C 6.628906 -8.414062 6.921875 -7.757812 6.921875 -6.9375 C 6.921875 -6.550781 6.847656 -6.179688 6.703125 -5.828125 C 6.554688 -5.484375 6.289062 -5.078125 5.90625 -4.609375 C 5.800781 -4.484375 5.460938 -4.125 4.890625 -3.53125 C 4.328125 -2.945312 3.53125 -2.128906 2.5 -1.078125 Z M 2.5 -1.078125 "/>
</symbol>
</g>
</defs>
<g id="surface41221">
<rect x="0" y="0" width="300" height="300" style="fill:rgb(100%,100%,100%);fill-opacity:1;stroke:none;"/>
<path style="fill:none;stroke-width:1.2;stroke-linecap:butt;stroke-linejoin:miter;stroke:rgb(0%,0%,0%);stroke-opacity:1;stroke-miterlimit:10;" d="M 167.089844 153.839844 L 201.265625 136.667969 "/>
<path style="fill:none;stroke-width:1.2;stroke-linecap:butt;stroke-linejoin:miter;stroke:rgb(0%,0%,0%);stroke-opacity:1;stroke-miterlimit:10;" d="M 167.089844 153.839844 L 135.128906 132.828125 "/>
<path style="fill:none;stroke-width:1.2;stroke-linecap:butt;stroke-linejoin:miter;stroke:rgb(0%,0%,0%);stroke-opacity:1;stroke-miterlimit:10;" d="M 201.265625 136.667969 L 217.246094 147.171875 "/>
<path style="fill:none;stroke-width:1.2;stroke-linecap:butt;stroke-linejoin:miter;stroke:rgb(0%,0%,100%);stroke-opacity:1;stroke-miterlimit:10;" d="M 217.246094 147.171875 L 233.230469 157.679688 "/>
<path style=" stroke:none;fill-rule:nonzero;fill:rgb(100%,100%,100%);fill-opacity:1;" d="M 217.230469 146.179688 L 250.230469 146.179688 L 250.230469 169.179688 L 217.230469 169.179688 Z M 217.230469 146.179688 "/>
<g style="fill:rgb(0%,0%,100%);fill-opacity:1;">
  <use xlink:href="#glyph0-1" x="217.230469" y="161.03125"/>
  <use xlink:href="#glyph0-2" x="229.199219" y="161.03125"/>
</g>
<g style="fill:rgb(0%,0%,100%);fill-opacity:1;">
  <use xlink:href="#glyph1-1" x="241.230469" y="165.914062"/>
</g>
<path style="fill:none;stroke-width:1.2;stroke-linecap:butt;stroke-linejoin:miter;stroke:rgb(0%,0%,0%);stroke-opacity:1;stroke-miterlimit:10;" d="M 135.128906 132.828125 L 118.039062 141.414062 "/>
<path style="fill:none;stroke-width:1.2;stroke-linecap:butt;stroke-linejoin:miter;stroke:rgb(100%,50%,0%);stroke-opacity:1;stroke-miterlimit:10;" d="M 118.039062 141.414062 L 100.949219 150 "/>
<path style="fill:none;stroke-width:1.2;stroke-linecap:butt;stroke-linejoin:miter;stroke:rgb(100%,50%,0%);stroke-opacity:1;stroke-miterlimit:10;" d="M 98.929688 145.980469 L 81.839844 154.566406 "/>
<path style="fill:none;stroke-width:1.2;stroke-linecap:butt;stroke-linejoin:miter;stroke:rgb(100%,0%,0%);stroke-opacity:1;stroke-miterlimit:10;" d="M 81.839844 154.566406 L 64.75 163.152344 "/>
<path style="fill:none;stroke-width:1.2;stroke-linecap:butt;stroke-linejoin:miter;stroke:rgb(100%,50%,0%);stroke-opacity:1;stroke-miterlimit:10;" d="M 102.96875 154.019531 L 85.878906 162.609375 "/>
<path style="fill:none;stroke-width:1.2;stroke-linecap:butt;stroke-linejoin:miter;stroke:rgb(100%,0%,0%);stroke-opacity:1;stroke-miterlimit:10;" d="M 85.878906 162.609375 L 68.792969 171.195312 "/>
<path style="fill:none;stroke-width:1.2;stroke-linecap:butt;stroke-linejoin:miter;stroke:rgb(100%,50%,0%);stroke-opacity:1;stroke-miterlimit:10;" d="M 100.949219 150 L 92.363281 132.910156 "/>
<path style="fill:none;stroke-width:1.2;stroke-linecap:butt;stroke-linejoin:miter;stroke:rgb(100%,0%,0%);stroke-opacity:1;stroke-miterlimit:10;" d="M 92.363281 132.910156 L 83.777344 115.820312 "/>
<path style="fill:none;stroke-width:1.2;stroke-linecap:butt;stroke-linejoin:miter;stroke:rgb(100%,50%,0%);stroke-opacity:1;stroke-miterlimit:10;" d="M 100.949219 150 L 109.535156 167.089844 "/>
<path style="fill:none;stroke-width:1.2;stroke-linecap:butt;stroke-linejoin:miter;stroke:rgb(100%,0%,0%);stroke-opacity:1;stroke-miterlimit:10;" d="M 109.535156 167.089844 L 118.121094 184.179688 "/>
<path style=" stroke:none;fill-rule:nonzero;fill:rgb(100%,100%,100%);fill-opacity:1;" d="M 95.949219 140.5 L 105.949219 140.5 L 105.949219 159.5 L 95.949219 159.5 Z M 95.949219 140.5 "/>
<g style="fill:rgb(100%,50%,0%);fill-opacity:1;">
  <use xlink:href="#glyph0-3" x="95.949219" y="155.351562"/>
</g>
<path style=" stroke:none;fill-rule:nonzero;fill:rgb(100%,100%,100%);fill-opacity:1;" d="M 53.769531 157.671875 L 66.769531 157.671875 L 66.769531 176.671875 L 53.769531 176.671875 Z M 53.769531 157.671875 "/>
<g style="fill:rgb(100%,0%,0%);fill-opacity:1;">
  <use xlink:href="#glyph0-4" x="53.769531" y="172.523438"/>
</g>
<path style=" stroke:none;fill-rule:nonzero;fill:rgb(100%,100%,100%);fill-opacity:1;" d="M 58.777344 106.320312 L 83.777344 106.320312 L 83.777344 125.320312 L 58.777344 125.320312 Z M 58.777344 106.320312 "/>
<g style="fill:rgb(100%,0%,0%);fill-opacity:1;">
  <use xlink:href="#glyph0-2" x="58.777344" y="121.171875"/>
  <use xlink:href="#glyph0-4" x="70.808594" y="121.171875"/>
</g>
<path style=" stroke:none;fill-rule:nonzero;fill:rgb(100%,100%,100%);fill-opacity:1;" d="M 106.121094 174.679688 L 131.121094 174.679688 L 131.121094 193.679688 L 106.121094 193.679688 Z M 106.121094 174.679688 "/>
<g style="fill:rgb(100%,0%,0%);fill-opacity:1;">
  <use xlink:href="#glyph0-4" x="106.121094" y="189.53125"/>
  <use xlink:href="#glyph0-2" x="118.714844" y="189.53125"/>
</g>
</g>
</svg>

<svg xmlns="http://www.w3.org/2000/svg" xmlns:xlink="http://www.w3.org/1999/xlink" width="300pt" height="300pt" viewBox="0 0 300 300"><defs><symbol overflow="visible"><path d="M.797 2.828v-14.11h8V2.83zm.906-.89h6.203v-12.33H1.703zm0 0"/></symbol><symbol overflow="visible" id="a"><path d="M1.578-11.672h2.125l5.172 9.766v-9.766h1.53V0H8.282L3.11-9.766V0H1.577zm0 0"/></symbol><symbol overflow="visible" id="b"><path d="M1.578-11.672h1.578v4.78H8.89v-4.78h1.58V0H8.89v-5.563H3.157V0H1.578zm0 0"/></symbol><symbol overflow="visible" id="d"><path d="M3.156-10.375v4.39H5.14c.727 0 1.29-.187 1.688-.562.406-.383.61-.93.61-1.64 0-.696-.204-1.235-.61-1.61-.398-.383-.96-.578-1.687-.578zm-1.578-1.297H5.14c1.3 0 2.286.297 2.954.89.676.595 1.015 1.462 1.015 2.595 0 1.156-.34 2.03-1.016 2.624-.668.586-1.653.875-2.953.875H3.157V0H1.578zm0 0"/></symbol><symbol overflow="visible" id="e"><path d="M6.313-10.594c-1.15 0-2.06.43-2.735 1.28-.68.857-1.015 2.017-1.015 3.486 0 1.47.335 2.633 1.015 3.484.676.856 1.586 1.28 2.735 1.28 1.144.002 2.05-.424 2.718-1.28.665-.85 1-2.015 1-3.484 0-1.47-.335-2.63-1-3.484-.667-.852-1.573-1.282-2.717-1.282zm0-1.28c1.632 0 2.94.546 3.92 1.64.978 1.093 1.47 2.562 1.47 4.406 0 1.844-.492 3.32-1.47 4.422-.98 1.093-2.288 1.64-3.92 1.64-1.65 0-2.96-.546-3.938-1.64-.98-1.102-1.47-2.578-1.47-4.422 0-1.844.49-3.313 1.47-4.406.977-1.094 2.29-1.64 3.938-1.64zm0 0"/></symbol><symbol overflow="visible"><path d="M.64 2.297v-11.47h6.5v11.47zm.735-.72h5.047V-8.436H1.375zm0 0"/></symbol><symbol overflow="visible" id="c"><path d="M2.5-1.078h4.47V0H.952v-1.078c.488-.5 1.15-1.172 1.985-2.016C3.78-3.944 4.312-4.5 4.53-4.75c.407-.457.69-.848.845-1.172.164-.32.25-.633.25-.937 0-.507-.18-.92-.53-1.234-.345-.312-.806-.47-1.376-.47-.408.002-.837.072-1.283.205-.437.137-.914.352-1.42.64v-1.296c.518-.207 1.003-.363 1.452-.468.444-.114.85-.172 1.217-.172.99 0 1.774.25 2.36.75.582.492.875 1.148.875 1.97 0 .385-.074.756-.22 1.108-.147.344-.413.75-.796 1.22-.105.124-.445.483-1.015 1.077-.562.585-1.36 1.4-2.39 2.452zm0 0"/></symbol></defs><g><path fill="#fff" d="M0 0h300v300H0z"/><path d="M167.09 153.84l34.176-17.172M167.09 153.84l-31.96-21.012M201.266 136.668l15.98 10.504" stroke-width="1.2" stroke="#000" stroke-miterlimit="10" fill="none"/><path d="M217.246 147.172l15.984 10.508" stroke-width="1.2" stroke="#00f" stroke-miterlimit="10" fill="none"/><path d="M217.23 146.18h33v23h-33zm0 0" fill="#fff"/><g fill="#00f"><use xlink:href="#a" x="217.23" y="161.031"/><use xlink:href="#b" x="229.199" y="161.031"/></g><use xlink:href="#c" x="241.23" y="165.914" fill="#00f"/><path d="M135.13 132.828l-17.09 8.586" stroke-width="1.2" stroke="#000" stroke-miterlimit="10" fill="none"/><path d="M118.04 141.414L100.95 150M98.93 145.98l-17.09 8.586" stroke-width="1.2" stroke="#ff7f00" stroke-miterlimit="10" fill="none"/><path d="M81.84 154.566l-17.09 8.586" stroke-width="1.2" stroke="#f00" stroke-miterlimit="10" fill="none"/><path d="M102.97 154.02l-17.09 8.59" stroke-width="1.2" stroke="#ff7f00" stroke-miterlimit="10" fill="none"/><path d="M85.88 162.61l-17.087 8.585" stroke-width="1.2" stroke="#f00" stroke-miterlimit="10" fill="none"/><path d="M100.95 150l-8.587-17.09" stroke-width="1.2" stroke="#ff7f00" stroke-miterlimit="10" fill="none"/><path d="M92.363 132.91l-8.586-17.09" stroke-width="1.2" stroke="#f00" stroke-miterlimit="10" fill="none"/><path d="M100.95 150l8.585 17.09" stroke-width="1.2" stroke="#ff7f00" stroke-miterlimit="10" fill="none"/><path d="M109.535 167.09l8.586 17.09" stroke-width="1.2" stroke="#f00" stroke-miterlimit="10" fill="none"/><path d="M95.95 140.5h10v19h-10zm0 0" fill="#fff"/><use xlink:href="#d" x="95.949" y="155.352" fill="#ff7f00"/><path d="M53.77 157.672h13v19h-13zm0 0" fill="#fff"/><use xlink:href="#e" x="53.77" y="172.523" fill="#f00"/><path d="M58.777 106.32h25v19h-25zm0 0" fill="#fff"/><g fill="#f00"><use xlink:href="#b" x="58.777" y="121.172"/><use xlink:href="#e" x="70.809" y="121.172"/></g><path d="M106.12 174.68h25v19h-25zm0 0" fill="#fff"/><g fill="#f00"><use xlink:href="#e" x="106.121" y="189.531"/><use xlink:href="#b" x="118.715" y="189.531"/></g></g></svg>
